X: 17113
T: Heights Of Dargai, The
R: slip jig
M: 9/8
K: Dmajor
e|:ABc e3 c2e|fdf e3 c3|a=gf e3 Ace|fec B3 B2e|
ABc e3 c2e|fdf e3 c3|a=gf e3 B2e|cdB (A3 A3):|
|:Ace f3 fdf|a=gf e3 c3|a=gf e3 Ace|fec B3 B2e|
ABc e3 c2e|fdf e3 c3|a=gf e3 B2e|cdB A3 A3:|

